X:5734
T:Gan ainm
R:jig
S:(Arty McGlynn/Maire Ni Chasathaigh)
H:
N:
D:
Z:Adrian Scahill
M:6/8
L:1/8
K:D
F2D DED|FAA AGF|G2E EDE|GBB BAG|\
F2D DCD|FAA AFA|Bcd edc|1 d2B A2G:|2 ded d2g||\
fdd dcd|f2g agf|ecA ~A3|~A3 ~A3|\
1 f2d dcd|fga agf|ecA ABc|ded d3:|2 fgf ~f3|~g3 ~g3|faf edc|dFB A2G||
